icon-themes/sifr_svg/cmd/ru/sc_underlinedouble.svg

<svg viewBox="0 0 16 16" xmlns="http://www.w3.org/2000/svg"><path d="m3 2v3.9628906c0 .9079755.1983524 1.6249201.5957031 2.1484375.3973513.5235173.940165.8908367 1.6289063 1.1035157.697572.2044988 1.5103473.274424 2.4375.2089843.935982-.0654397 2.2694579-.2304288 3.3378906-.4921875v.0683594h2v-7h-2v5.4238281c-.874172.1963187-1.9773555.3216463-2.6484375.3789063-.6622493.0490799-1.5496667.0133245-2-.109375-.4415013-.1308793-.7782325-.3603017-1.0078125-.6875-.22958-.3353783-.34375-.788731-.34375-1.3613282v-3.6445312zm-1 8v2h12v-2zm0 3v2h12v-2z" fill="#555753"/></svg>

<svg xmlns="http://www.w3.org/2000/svg" viewBox="0 0 16 16">
<path
   style="fill:#555753"
   d="M 3 2 L 3 5.9628906 C 3 6.8708661 3.1983524 7.5878107 3.5957031 8.1113281 C 3.9930544 8.6348454 4.5358681 9.0021648 5.2246094 9.2148438 C 5.9221814 9.4193426 6.7349567 9.4892678 7.6621094 9.4238281 C 8.5980914 9.3583884 9.9315673 9.1933993 11 8.9316406 L 11 9 L 13 9 L 13 2 L 11 2 L 11 7.4238281 C 10.125828 7.6201468 9.0226445 7.7454744 8.3515625 7.8027344 C 7.6893132 7.8518143 6.8018958 7.8160589 6.3515625 7.6933594 C 5.9100612 7.5624801 5.57333 7.3330577 5.34375 7.0058594 C 5.11417 6.6704811 5 6.2171284 5 5.6445312 L 5 2 L 3 2 z M 2 10 L 2 12 L 14 12 L 14 10 L 2 10 z M 2 13 L 2 15 L 14 15 L 14 13 L 2 13 z "
   />
</svg>
